X: 4
T: Missa Cela sans plus / Sanctus
N: Derived from Mar1001d-Missa_Cela_sans_plus-Sanctus.krn
C: Johannes Martini
%%abc-version 2.0
%%abcx-abcm2ps-target-version 5.9.1 (29 Sep 2008)
%%abc-creator hum2abc beta
%%abcx-conversion-date 2019/02/17 07:19:40
%%abc-edited-by Jesse Rodin
%%abc-edited-by Chris Gage 10-23-2013
%%abcx-initial-encoding-date 2015/03/06/
%%humdrum-veritas 3394264651
%%humdrum-veritas-data 4202256869
%%linebreak <none>
%%barnumbers 0
L: 1/4
M: 4/2
Q: 1/2=120
%%staves [1 2 3 4]
V: 1 clef=treble
V: 2 clef=treble-8
V: 3 clef=treble-8
V: 4 clef=bass
K: C
[V:1] z8 | 
[V:2] d8 | 
[V:3] z8 | 
[V:4] D,6F,2- | 
[V:1] z8 | 
[V:2] c4B4 | 
[V:3] z8 | 
[V:4] F,E,A,4G,2 | 
[V:1] z8 | 
[V:2] A4D2F2 | 
[V:3] z8 | 
[V:4] A,2F,4D,2 | 
[V:1] z8 | 
[V:2] G2A2B2c2- | 
[V:3] z8 | 
[V:4] E,2C,2D,2E,2 | 
[V:1] z8 | 
[V:2] cBA4^G2 | 
[V:3] z8 | 
[V:4] A,,4B,,4 | 
[V:1] A8 | 
[V:2] A2e3dd2- | 
[V:3] z8 | 
[V:4] A,,2C,2D,2F,2 | 
[V:1] G4F4- | 
[V:2] d2^c2d4 | 
[V:3] z4A4- | 
[V:4] E,4D,4 | 
[V:1] F4E4 | 
[V:2] c6B2 | 
[V:3] A4G4 | 
[V:4] A,,4C,4 | 
[V:1] z4D4 | 
[V:2] A4D4 | 
[V:3] F8 | 
[V:4] D,4z2A,2 | 
[V:1] G4F2D2 | 
[V:2] z2G2A2B2 | 
[V:3] E4D4 | 
[V:4] G,2E,2F,3E, | 
[V:1] EDCB,A,4 | 
[V:2] cde2d3c | 
[V:3] G4F2D2- | 
[V:4] C,4D,2F,2- | 
[V:1] F2E3DD2- | 
[V:2] A2c2A2B2 | 
[V:3] D2E2F2G2 | 
[V:4] F,2C,2D,2G,,2 | 
[V:1] D2^C2D4 | 
[V:2] A4FGAB | 
[V:3] E4D4 | 
[V:4] A,,4z2D,2 | 
[V:1] E2D2G4 | 
[V:2] c2B4c2 | 
[V:3] G8 | 
[V:4] C,2D,2E,4 | 
[V:1] F4D4- | 
[V:2] d4D2E2 | 
[V:3] A4B4- | 
[V:4] D,6C,2 | 
[V:1] D4z2A2 | 
[V:2] D2G4^F2 | 
[V:3] B4c4 | 
[V:4] B,,2G,,2A,,4 | 
[V:1] B8 | 
[V:2] GABcd2g2- | 
[V:3] d4d4- | 
[V:4] G,,4G,4 | 
[V:1] A4z2d2- | 
[V:2] g2^f2g3=f | 
[V:3] d2c2B2G2 | 
[V:4] A,4G,4 | 
[V:1] d2^c2d4- | 
[V:2] ede2d4 | 
[V:3] A4D2F2 | 
[V:4] z8 | 
[V:1] d2c2B2G2 | 
[V:2] B2c2d2e2 | 
[V:3] G2A3GG2- | 
[V:4] z4G,4 | 
[V:1] A4D2F2 | 
[V:2] d8 | 
[V:3] G2^F2G2A2 | 
[V:4] D,4G,2D,2 | 
[V:1] G2A3GG2- | 
[V:2] e2f4e2 | 
[V:3] B2c2d2B2 | 
[V:4] G,2F,4G,2 | 
[V:1] G2^F2G4- | 
[V:2] d4B4 | 
[V:3] A4G4 | 
[V:4] D,4z2E,2- | 
[V:1] G4z4 | 
[V:2] G4A4 | 
[V:3] z2d4c2 | 
[V:4] E,F,G,4F,2 | 
[V:1] z4z2d2- | 
[V:2] G2F2G2B2 | 
[V:3] B2A2G4 | 
[V:4] G,2D,2z2G,,2 | 
[V:1] d2c2B2A2 | 
[V:2] A4z2d2- | 
[V:3] F4G2D2 | 
[V:4] A,,4G,,2z2 | 
[V:1] G4F4 | 
[V:2] d2c2dcBA | 
[V:3] E4D4 | 
[V:4] G,4A,2G,F, | 
[V:1] G2D2E4 | 
[V:2] G2A2E2F2 | 
[V:3] z2D2G2A2 | 
[V:4] E,2F,2C,3B,, | 
[V:1] D4z2D2 | 
[V:2] G2F4D2 | 
[V:3] _B4A2G2- | 
[V:4] G,,2D,4B,,2 | 
[V:1] G2A2B4 | 
[V:2] E2C2D2d2- | 
[V:3] G2F2G2D2 | 
[V:4] C,2A,,2G,,A,,B,,C, | 
[V:1] A2G3^FFE | 
[V:2] dBc2d4 | 
[V:3] F2G2A4 | 
[V:4] D,2E,2D,4 | 
[V:1] G4z4 | 
[V:2] B4z2d2 | 
[V:3] G4z4 | 
[V:4] z2G,2A,2F,2 | 
[V:1] z8 | 
[V:2] e2c2B4 | 
[V:3] z8 | 
[V:4] E,4z2G,2 | 
[V:1] z8 | 
[V:2] z2d2c2BA | 
[V:3] z8 | 
[V:4] F,2E,D,E,2D,2- | 
[V:1] z8 | 
[V:2] B2A4d2- | 
[V:3] z8 | 
[V:4] D,2C,2D,2F,2 | 
[V:1] G4F2A2 | 
[V:2] d2^c2d4- | 
[V:3] z8 | 
[V:4] E,4D,4 | 
[V:1] G2_B2A2GF | 
[V:2] d4f3e | 
[V:3] G4F2A2 | 
[V:4] G,,4D,4 | 
[V:1] E2D2F3E | 
[V:2] c2d3cA2 | 
[V:3] G2_B2A3G/F/ | 
[V:4] z4D,2E,F, | 
[V:1] C2D3EFG | 
[V:2] G2A3Bc2- | 
[V:3] E2D2F3E | 
[V:4] G,2F,2A,4 | 
[V:1] E2D2A4 | 
[V:2] cBA4d2 | 
[V:3] C2D3EFG | 
[V:4] G,2F,2D,3B,, | 
[V:1] G2F4E2- | 
[V:2] e2A2d2c2- | 
[V:3] E2D2A4 | 
[V:4] C,2D,4A,,2 | 
[V:1] E2D4^C2 | 
[V:2] c2B2A4 | 
[V:3] G2F2E4 | 
[V:4] C,2D,2A,,4 | 
[V:1] D8 ||  
[V:2] A8 ||  
[V:3] D8 ||  
[V:4] A,8 ||  
[V:1]  [K:C] [K:clef=treble][M:4/2]D8 | 
[V:2]  [K:C] [K:clef=treble-8][M:4/2]z8 | 
[V:3]  [K:C] [K:clef=treble-8][M:4/2]z8 | 
[V:4]  [K:C] [K:clef=bass][M:4/2]z8 | 
[V:1] D4A4- | 
[V:2] D8 | 
[V:3] z8 | 
[V:4] z8 | 
[V:1] A2G2F4 | 
[V:2] D4A4- | 
[V:3] z8 | 
[V:4] z8 | 
[V:1] E4D4 | 
[V:2] A2G2F4 | 
[V:3] z8 | 
[V:4] z8 | 
[V:1] G4F2A2- | 
[V:2] E4D4 | 
[V:3] z8 | 
[V:4] z8 | 
[V:1] A2_B2A2GF | 
[V:2] z4d4 | 
[V:3] z8 | 
[V:4] z8 | 
[V:1] E4A,3B, | 
[V:2] c2e4f2 | 
[V:3] z8 | 
[V:4] z8 | 
[V:1] CDE4D2 | 
[V:2] e2dcB4 | 
[V:3] z8 | 
[V:4] z8 | 
[V:1] F2E3DC2 | 
[V:2] A3Bcde2- | 
[V:3] z8 | 
[V:4] z8 | 
[V:1] B,4A,4 | 
[V:2] e2d2f2e2- | 
[V:3] z8 | 
[V:4] z8 | 
[V:1] z2A4G2 | 
[V:2] edc2B4 | 
[V:3] z8 | 
[V:4] z8 | 
[V:1] A2F4D2 | 
[V:2] A4_B4 | 
[V:3] z8 | 
[V:4] z8 | 
[V:1] E2F2D4 | 
[V:2] A2F4D2 | 
[V:3] z8 | 
[V:4] z8 | 
[V:1] z4A4 | 
[V:2] E2F2D4 | 
[V:3] z8 | 
[V:4] z8 | 
[V:1] d4c2A2 | 
[V:2] z4A4 | 
[V:3] z8 | 
[V:4] z8 | 
[V:1] BAGFE4 | 
[V:2] d4c2A2 | 
[V:3] z8 | 
[V:4] z8 | 
[V:1] D4C4 | 
[V:2] BAGFE4 | 
[V:3] z8 | 
[V:4] z8 | 
[V:1] F4G2A2- | 
[V:2] D4C4 | 
[V:3] z8 | 
[V:4] z8 | 
[V:1] A2D4E2- | 
[V:2] F4G4 | 
[V:3] z8 | 
[V:4] z8 | 
[V:1] E2C2D2E2- | 
[V:2] A4B2A2 | 
[V:3] z8 | 
[V:4] z8 | 
[V:1] E2A,4G,2 | 
[V:2] c3de4 | 
[V:3] z8 | 
[V:4] z8 | 
[V:1] A,2C2D2F2 | 
[V:2] A4G2A2 | 
[V:3] z8 | 
[V:4] z8 | 
[V:1] E3DD2G2- | 
[V:2] c2d2f2e2- | 
[V:3] z8 | 
[V:4] z8 | 
[V:1] G2F2E4 | 
[V:2] edd4^c2 | 
[V:3] z8 | 
[V:4] z8 | 
[V:1] D8 | 
[V:2] d4z4 | 
[V:3] z8 | 
[V:4] z8 | 
[V:1] z8 | 
[V:2] A8 | 
[V:3] z8 | 
[V:4] D,6F,2- | 
[V:1] z8 | 
[V:2] d8 | 
[V:3] z8 | 
[V:4] F,2D,2F,2G,2 | 
[V:1] z8 | 
[V:2] c4A4 | 
[V:3] z8 | 
[V:4] E,2F,3G,A,2- | 
[V:1] z8 | 
[V:2] B8 | 
[V:3] z8 | 
[V:4] A,2G,F,G,4 | 
[V:1] z8 | 
[V:2] A8 | 
[V:3] z8 | 
[V:4] A,4D,4 | 
[V:1] z8 | 
[V:2] D6F2- | 
[V:3] z8 | 
[V:4] D,2F,3G,A,2- | 
[V:1] z8 | 
[V:2] F2D2F2G2 | 
[V:3] z8 | 
[V:4] A,2F,2D,2E,2 | 
[V:1] z8 | 
[V:2] E2F3GA2- | 
[V:3] z8 | 
[V:4] C,2D,4C,2 | 
[V:1] z4D4 | 
[V:2] A2^G^F^G4 | 
[V:3] z8 | 
[V:4] A,,2C,2B,,4 | 
[V:1] C3DE2F2- | 
[V:2] A8 | 
[V:3] z8 | 
[V:4] A,,3B,,C,2D,2- | 
[V:1] FEDCB,4 | 
[V:2] z4d4 | 
[V:3] z8 | 
[V:4] D,C,B,,A,,^G,,3^F,, | 
[V:1] A,4z4 | 
[V:2] c3de2f2- | 
[V:3] z8 | 
[V:4] A,,4A,4- | 
[V:1] D6E2 | 
[V:2] fedcB4 | 
[V:3] z8 | 
[V:4] A,4^G,4 | 
[V:1] F4E4 | 
[V:2] A8 | 
[V:3] z8 | 
[V:4] A,4z2A,2 | 
[V:1] D2F4E2 | 
[V:2] z4d4 | 
[V:3] z8 | 
[V:4] F,2D,4G,2 | 
[V:1] D2CB,A,2D2- | 
[V:2] d2e2f4 | 
[V:3] z8 | 
[V:4] F,2A,4F,2 | 
[V:1] D2^C2D4 | 
[V:2] e4d2f2- | 
[V:3] z8 | 
[V:4] G,2A,2D,4- | 
[V:1] z4A4- | 
[V:2] f2e2d2cB | 
[V:3] z8 | 
[V:4] D,2C,2D,2F,2- | 
[V:1] A4G4 | 
[V:2] A2d4^c2 | 
[V:3] z8 | 
[V:4] F,2E,D,E,4 | 
[V:1] F3GA2_B2- | 
[V:2] d4z4 | 
[V:3] z8 | 
[V:4] D,4D,4- | 
[V:1] BAA4G2 | 
[V:2] d8 | 
[V:3] z8 | 
[V:4] D,2C,2_B,,4 | 
[V:1] A2c3BA2- | 
[V:2] c3de2f2- | 
[V:3] z8 | 
[V:4] A,,6D,2- | 
[V:1] AGFEF2ED | 
[V:2] fee4d2 | 
[V:3] z8 | 
[V:4] D,A,,C,2D,2_B,,2 | 
[V:1] C2E3FG2- | 
[V:2] e2g3fe2- | 
[V:3] z8 | 
[V:4] C,3D,E,4 | 
[V:1] GFE4DC | 
[V:2] edc4BA | 
[V:3] z8 | 
[V:4] C,4A,,4 | 
[V:1] B,4z2A,2 | 
[V:2] G6A2- | 
[V:3] z8 | 
[V:4] E,6F,2- | 
[V:1] C2D2E2G2- | 
[V:2] A2GFE3F | 
[V:3] z8 | 
[V:4] F,2E,D,C,2E,2- | 
[V:1] G2FED4 | 
[V:2] G2A4^G2 | 
[V:3] z8 | 
[V:4] E,2D,C,B,,4 | 
[V:1] C8 ||  
[V:2] A8 ||  
[V:3] z8 ||  
[V:4] A,,8 ||  
[V:1]  [K:C] [K:clef=treble][M:3/1]A8A4 | 
[V:2]  [K:C] [K:clef=treble-8][M:3/1]d8c4- | 
[V:3]  [K:C] [K:clef=treble-8][M:3/1]z12 | 
[V:4]  [K:C] [K:clef=bass][M:3/1]D,8F,4 | 
[V:1] G4F8 | 
[V:2] c4d8 | 
[V:3] z12 | 
[V:4] E,4D,8 | 
[V:1] E12- | 
[V:2] c8c4 | 
[V:3] A8A4 | 
[V:4] A,,8C,4- | 
[V:1] E4A8 | 
[V:2] e4d8 | 
[V:3] G4F8 | 
[V:4] C,4D,8 | 
[V:1] G8F4 | 
[V:2] B4c4A4 | 
[V:3] E8A4- | 
[V:4] E,4C,4D,4 | 
[V:1] E6D2C4 | 
[V:2] c6d2e4- | 
[V:3] A12 | 
[V:4] A,,6B,,2C,2D,2 | 
[V:1] B,8A,4 | 
[V:2] e4B4c4 | 
[V:3] G8F4 | 
[V:4] E,8z4 | 
[V:1] C4D4E4- | 
[V:2] A8c4- | 
[V:3] E4F4G4 | 
[V:4] A,,4D,4C,4 | 
[V:1] E4F8 | 
[V:2] c4A8 | 
[V:3] A8D4- | 
[V:4] A,,8_B,,4- | 
[V:1] D8^C4 | 
[V:2] G4A6G2 | 
[V:3] D4E8 | 
[V:4] B,,4A,,8 | 
[V:1] D12 | 
[V:2] A4_B4A4 | 
[V:3] D12- | 
[V:4] z4z4A,4 | 
[V:1] z12 | 
[V:2] F6G2A4 | 
[V:3] D12 | 
[V:4] A,6G,2F,4 | 
[V:1] G8A4 | 
[V:2] G4c6d2 | 
[V:3] z12 | 
[V:4] E,8F,4 | 
[V:1] G6F2E4 | 
[V:2] e6d2c4 | 
[V:3] z12 | 
[V:4] E,4C,6B,,2 | 
[V:1] D4E4F4 | 
[V:2] B4c4d4 | 
[V:3] G8A4 | 
[V:4] G,,8D,4 | 
[V:1] G6A2B2c2 | 
[V:2] B8G4 | 
[V:3] G6F2E4 | 
[V:4] E,6F,2G,4 | 
[V:1] d8c4 | 
[V:2] A12 | 
[V:3] D4E4F4 | 
[V:4] F,6G,2A,4 | 
[V:1] B4G8 | 
[V:2] d8G4 | 
[V:3] G6A2B2c2 | 
[V:4] G,6F,2E,4 | 
[V:1] F4A6G2 | 
[V:2] A12 | 
[V:3] d8c4 | 
[V:4] D,4F,6D,2 | 
[V:1] G8^F4 | 
[V:2] d12 | 
[V:3] B4A8 | 
[V:4] G,4D,8 | 
[V:1] G12 | 
[V:2] B8G4 | 
[V:3] G8z4 | 
[V:4] G,,12- | 
[V:1] z12 | 
[V:2] B6c2d2e2 | 
[V:3] d6c2B4 | 
[V:4] G,,12 | 
[V:1] z12 | 
[V:2] f4d2e4d2 | 
[V:3] A4G4A4 | 
[V:4] z12 | 
[V:1] z12 | 
[V:2] d6^cB^c4 | 
[V:3] F4E8 | 
[V:4] z12 | 
[V:1] d6c2B4 | 
[V:2] d12 | 
[V:3] D4F4G4 | 
[V:4] D,8G,,4 | 
[V:1] A4G4A4 | 
[V:2] D4G4F4 | 
[V:3] A4_B4A4 | 
[V:4] D,4G,,4D,4- | 
[V:1] F4E8 | 
[V:2] D4A8 | 
[V:3] d8^c4 | 
[V:4] D,4A,,8 | 
[V:1] D4F4G4 | 
[V:2] D8d4 | 
[V:3] d8z4 | 
[V:4] A,8G,4 | 
[V:1] A8G4 | 
[V:2] d8e4- | 
[V:3] D4F4G4 | 
[V:4] F,8E,4 | 
[V:1] E4F4G4 | 
[V:2] e4d4c4 | 
[V:3] A8G4 | 
[V:4] C,4D,4E,4 | 
[V:1] A4_B6A2 | 
[V:2] d12- | 
[V:3] F4G4_B4- | 
[V:4] D,4G,,4G,4- | 
[V:1] G8^F4 | 
[V:2] d12 | 
[V:3] B4A8 | 
[V:4] G,4D,8 | 
[V:1] G12 | 
[V:2] B4c4B4 | 
[V:3] G8G4 | 
[V:4] E,4C,4E,4 | 
[V:1] z12 | 
[V:2] d6c2B2A2 | 
[V:3] A8F4 | 
[V:4] D,6E,2F,4 | 
[V:1] z4z4G4 | 
[V:2] G4B4c4 | 
[V:3] E8G4 | 
[V:4] G,6F,2E,4 | 
[V:1] A8F4 | 
[V:2] d4A4d4 | 
[V:3] F4D4F4 | 
[V:4] D,12 | 
[V:1] E8G4 | 
[V:2] e4B4c4 | 
[V:3] G4E8 | 
[V:4] z4z4G,4 | 
[V:1] F4D4F4 | 
[V:2] d8d4 | 
[V:3] D12 | 
[V:4] A,8F,4 | 
[V:1] G4E8 | 
[V:2] e6d2c2B2 | 
[V:3] G8A4 | 
[V:4] E,8A,,4 | 
[V:1] D8^C4 | 
[V:2] A8A4 | 
[V:3] F4E8 | 
[V:4] D,4A,,8 | 
[V:1] D12 ||  
[V:2] A12 ||  
[V:3] D12 ||  
[V:4] A,12 ||  
[V:1]  [K:C] [K:clef=treble][M:2/1]D4A4- | 
[V:2]  [K:C] [K:clef=treble-8][M:2/1]z8 | 
[V:3]  [K:C] [K:clef=treble-8][M:2/1]z8 | 
[V:4]  [K:C] [K:clef=bass][M:2/1]z8 | 
[V:1] A2B2c4 | 
[V:2] z8 | 
[V:3] z8 | 
[V:4] z8 | 
[V:1] d4c2A2- | 
[V:2] D4A4- | 
[V:3] z8 | 
[V:4] z8 | 
[V:1] AGF2E4 | 
[V:2] A2B2c4 | 
[V:3] z8 | 
[V:4] z8 | 
[V:1] D4E2F2- | 
[V:2] d4c2A2- | 
[V:3] z8 | 
[V:4] z8 | 
[V:1] FED4^C2 | 
[V:2] AGF2E4 | 
[V:3] z8 | 
[V:4] z8 | 
[V:1] D2F2G2A2- | 
[V:2] D4E2F2- | 
[V:3] z8 | 
[V:4] z8 | 
[V:1] A2GFE4 | 
[V:2] FED4^C2 | 
[V:3] z8 | 
[V:4] z8 | 
[V:1] z4E4 | 
[V:2] D2F2G2A2- | 
[V:3] z8 | 
[V:4] z8 | 
[V:1] E6D2 | 
[V:2] A2GFE4 | 
[V:3] z8 | 
[V:4] z8 | 
[V:1] C4B,4 | 
[V:2] z8 | 
[V:3] z8 | 
[V:4] z8 | 
[V:1] A,2C3DEF | 
[V:2] e4e4 | 
[V:3] z8 | 
[V:4] z8 | 
[V:1] G2A2c2B2- | 
[V:2] e6d2 | 
[V:3] z8 | 
[V:4] z8 | 
[V:1] BAA4^G2 | 
[V:2] c4B4 | 
[V:3] z8 | 
[V:4] z8 | 
[V:1] A4z4 | 
[V:2] A6F2- | 
[V:3] z8 | 
[V:4] z8 | 
[V:1] D4A4- | 
[V:2] F2G2F2D2- | 
[V:3] z8 | 
[V:4] z8 | 
[V:1] A4G4 | 
[V:2] DEFGE4 | 
[V:3] z8 | 
[V:4] z8 | 
[V:1] F4E4 | 
[V:2] D4A4- | 
[V:3] z8 | 
[V:4] z8 | 
[V:1] z2c4B2 | 
[V:2] A4G4 | 
[V:3] z8 | 
[V:4] z8 | 
[V:1] A2d4c2 | 
[V:2] F4E4 | 
[V:3] z8 | 
[V:4] z8 | 
[V:1] d2A4G2 | 
[V:2] z2c4B2 | 
[V:3] z8 | 
[V:4] z8 | 
[V:1] A2F2E4 | 
[V:2] A2d4^c2 | 
[V:3] z8 | 
[V:4] z8 | 
[V:1] D2E2F2GF | 
[V:2] d2A4G2 | 
[V:3] z8 | 
[V:4] z8 | 
[V:1] EDD4^C2 | 
[V:2] A2F2E4 | 
[V:3] z8 | 
[V:4] z8 | 
[V:1] D8 | 
[V:2] D4z4 | 
[V:3] z8 | 
[V:4] z8 | 
[V:1] z8 | 
[V:2] A8 | 
[V:3] z8 | 
[V:4] A,,6C,2- | 
[V:1] z8 | 
[V:2] G4F4 | 
[V:3] z8 | 
[V:4] C,B,,E,4D,2 | 
[V:1] z8 | 
[V:2] E8 | 
[V:3] z8 | 
[V:4] E,6C,2- | 
[V:1] z8 | 
[V:2] z4G4 | 
[V:3] z8 | 
[V:4] C,2A,,2B,,4 | 
[V:1] z8 | 
[V:2] A6F2- | 
[V:3] z8 | 
[V:4] C,4A,,4 | 
[V:1] z8 | 
[V:2] F2D2E4 | 
[V:3] z8 | 
[V:4] z2D,4C,2 | 
[V:1] z8 | 
[V:2] F4D4 | 
[V:3] z8 | 
[V:4] D,4F,3G, | 
[V:1] z8 | 
[V:2] z2D2E2G2 | 
[V:3] z8 | 
[V:4] A,4G,3F, | 
[V:1] z8 | 
[V:2] A2GABAGF | 
[V:3] z8 | 
[V:4] D,4z2D,2 | 
[V:1] z8 | 
[V:2] E4D4 | 
[V:3] z8 | 
[V:4] E,2G,2A,2G,A, | 
[V:1] z8 | 
[V:2] z2d4^c2 | 
[V:3] z8 | 
[V:4] B,A,G,F,E,4 | 
[V:1] z8 | 
[V:2] d3cA3B | 
[V:3] z8 | 
[V:4] D,2F,3G,A,2- | 
[V:1] z8 | 
[V:2] c2d2B2A2- | 
[V:3] z8 | 
[V:4] A,2D,4C,2 | 
[V:1] z8 | 
[V:2] AGG4^F2 | 
[V:3] z8 | 
[V:4] D,2B,,2A,,4 | 
[V:1] z4d4 | 
[V:2] G4D2G2- | 
[V:3] z8 | 
[V:4] G,,8 | 
[V:1] d6c2 | 
[V:2] GABcd2e2 | 
[V:3] z8 | 
[V:4] z8 | 
[V:1] B4A4 | 
[V:2] d2g4^f2 | 
[V:3] z8 | 
[V:4] z8 | 
[V:1] G8 | 
[V:2] g2e2edcB | 
[V:3] z8 | 
[V:4] z8 | 
[V:1] F4E4 | 
[V:2] A2d4^c2 | 
[V:3] z8 | 
[V:4] z8 | 
[V:1] D3CB,2A,2 | 
[V:2] d2G4F2 | 
[V:3] z8 | 
[V:4] z8 | 
[V:1] B,2C2D3E | 
[V:2] G2E2D2d2- | 
[V:3] z8 | 
[V:4] z8 | 
[V:1] FGA2B4 | 
[V:2] defdg2d2- | 
[V:3] z8 | 
[V:4] z8 | 
[V:1] A2G4^F2 | 
[V:2] d2cBA4 | 
[V:3] z8 | 
[V:4] z8 | 
[V:1] G8 | 
[V:2] G4z4 | 
[V:3] z8 | 
[V:4] z8 | 
[V:1] z8 | 
[V:2] G4A4- | 
[V:3] z8 | 
[V:4] z8 | 
[V:1] z8 | 
[V:2] A2G2F4 | 
[V:3] z8 | 
[V:4] z8 | 
[V:1] z8 | 
[V:2] E4D2F2- | 
[V:3] z8 | 
[V:4] G,4A,4- | 
[V:1] z8 | 
[V:2] F2E2F2D2- | 
[V:3] z8 | 
[V:4] A,2G,2F,4 | 
[V:1] G4A4- | 
[V:2] D2C2F2D2 | 
[V:3] z8 | 
[V:4] E,4D,2F,2- | 
[V:1] A2G2F4 | 
[V:2] F2G2A4 | 
[V:3] z8 | 
[V:4] F,2E,2F,2D,2- | 
[V:1] E4D2F2- | 
[V:2] B2c2A2d2- | 
[V:3] z8 | 
[V:4] D,2C,2D,4 | 
[V:1] F2E2F2D2- | 
[V:2] d2c2d2f2 | 
[V:3] z8 | 
[V:4] A,,4D,4 | 
[V:1] D2C2F3E | 
[V:2] e4z2d2- | 
[V:3] z8 | 
[V:4] A,4D,4- | 
[V:1] F2G2A4 | 
[V:2] d2cBA2F2 | 
[V:3] z8 | 
[V:4] D,2E,2F,E,D,C, | 
[V:1] B2c2A2d2- | 
[V:2] G2A4GF | 
[V:3] z8 | 
[V:4] B,,2A,,2D,4 | 
[V:1] d2c2B2d2- | 
[V:2] E4D4 | 
[V:3] z8 | 
[V:4] G,4F,4 | 
[V:1] d2cBA2F2 | 
[V:2] d8 | 
[V:3] z8 | 
[V:4] D,4z2D,2 | 
[V:1] G2A4GF | 
[V:2] c4A2c2- | 
[V:3] z8 | 
[V:4] E,2F,4E,D, | 
[V:1] E2D2F2E2- | 
[V:2] c2B2A4 | 
[V:3] z8 | 
[V:4] C,2D,4C,2- | 
[V:1] EDD4^C2 | 
[V:2] G4A4 | 
[V:3] z8 | 
[V:4] C,2B,,2A,,4 | 
[V:1] D8 ||  
[V:2] D8 ||  
[V:3] z8 ||  
[V:4] A,8 ||  



